; generated by Slic3r 1.3.0 on 2021-02-08 at 22:29:49

; external perimeters extrusion width = 0.55mm (4.37mm^3/s)
; perimeters extrusion width = 0.70mm (11.44mm^3/s)
; infill extrusion width = 0.62mm (13.45mm^3/s)
; solid infill extrusion width = 0.70mm (3.81mm^3/s)
; top infill extrusion width = 0.70mm (2.86mm^3/s)

M107
M190 S60 ; set bed temperature and wait for it to be reached
M104 S230 ; set temperature
G28 ; home all axes
G1 Z5 F5000 ; lift nozzle

; Filament gcode

M109 S230 ; set temperature and wait for it to be reached
G21 ; set units to millimeters
G90 ; use absolute coordinates
M82 ; use absolute distances for extrusion
G92 E0
G1 Z0.350 F7800.000
G1 E-2.00000 F2400.00000
G92 E0
G1 X38.915 Y33.753 F7800.000
G1 E2.00000 F2400.00000
G1 F1800
G1 X40.668 Y32.274 E2.20854
G1 X42.820 Y31.481 E2.41708
G1 X44.000 Y31.375 E2.52479
G1 X156.000 Y31.375 E12.70891
G1 X158.259 Y31.772 E12.91745
G1 X160.247 Y32.915 E13.12599
G1 X161.726 Y34.668 E13.33453
G1 X162.519 Y36.820 E13.54308
G1 X162.625 Y38.000 E13.65079
G1 X162.625 Y162.000 E24.92605
G1 X162.228 Y164.259 E25.13460
G1 X161.085 Y166.247 E25.34314
G1 X159.332 Y167.726 E25.55168
G1 X157.180 Y168.519 E25.76022
G1 X156.000 Y168.625 E25.86793
G1 X44.000 Y168.625 E36.05204
G1 X41.741 Y168.228 E36.26059
G1 X39.753 Y167.085 E36.46913
G1 X38.274 Y165.332 E36.67767
G1 X37.481 Y163.180 E36.88621
G1 X37.375 Y162.000 E36.99392
G1 X37.375 Y38.000 E48.26919
G1 X37.772 Y35.741 E48.47773
G1 X38.878 Y33.818 E48.67946
G1 E46.67946 F2400.00000
G92 E0
G1 X149.254 Y154.586 F7800.000
G1 E2.00000 F2400.00000
G1 F1800
G1 X149.769 Y154.287 E2.05416
G1 X150.332 Y154.096 E2.10829
G1 X150.929 Y154.021 E2.16293
G1 X151.522 Y154.066 E2.21702
G1 X152.097 Y154.229 E2.27138
G1 X152.623 Y154.501 E2.32521
G1 X153.044 Y154.832 E2.37392
G1 X153.428 Y155.274 E2.42718
G1 X153.698 Y155.737 E2.47589
G1 X153.895 Y156.295 E2.52972
G1 X153.978 Y156.888 E2.58411
G1 X153.940 Y157.485 E2.63849
G1 X153.784 Y158.062 E2.69288
G1 X153.516 Y158.596 E2.74724
G1 X153.153 Y159.059 E2.80077
G1 X152.747 Y159.414 E2.84976
G1 X152.235 Y159.712 E2.90363
G1 X151.668 Y159.904 E2.95802
G1 X151.075 Y159.979 E3.01240
G1 X150.479 Y159.934 E3.06678
G1 X149.909 Y159.772 E3.12065
G1 X149.427 Y159.530 E3.16966
G1 X148.960 Y159.172 E3.22319
G1 X148.572 Y158.726 E3.27697
G1 X148.302 Y158.263 E3.32569
G1 X148.105 Y157.705 E3.37952
G1 X148.022 Y157.112 E3.43390
G1 X148.060 Y156.515 E3.48829
G1 X148.216 Y155.938 E3.54268
G1 X148.484 Y155.404 E3.59704
G1 X148.847 Y154.941 E3.65056
G1 X149.197 Y154.635 E3.69278
G1 X149.620 Y155.096 F7800.000
G1 F1800
G1 X150.028 Y154.858 E3.73579
G1 X150.473 Y154.708 E3.77845
G1 X150.944 Y154.649 E3.82163
G1 X151.412 Y154.685 E3.86428
G1 X151.866 Y154.813 E3.90720
G1 X152.283 Y155.029 E3.94992
G1 X152.611 Y155.287 E3.98789
G1 X152.918 Y155.640 E4.03041
G1 X153.129 Y156.001 E4.06838
G1 X153.285 Y156.444 E4.11110
G1 X153.350 Y156.911 E4.15403
G1 X153.320 Y157.382 E4.19695
G1 X153.197 Y157.838 E4.23987
G1 X152.986 Y158.260 E4.28279
G1 X152.698 Y158.627 E4.32524
G1 X152.381 Y158.904 E4.36347
G1 X151.975 Y159.140 E4.40621
G1 X151.527 Y159.292 E4.44914
G1 X151.059 Y159.351 E4.49206
G1 X150.588 Y159.315 E4.53498
G1 X150.136 Y159.187 E4.57772
G1 X149.760 Y158.998 E4.61597
G1 X149.390 Y158.714 E4.65841
G1 X149.082 Y158.360 E4.70112
G1 X148.871 Y157.999 E4.73909
G1 X148.715 Y157.556 E4.78182
G1 X148.650 Y157.089 E4.82474
G1 X148.680 Y156.618 E4.86766
G1 X148.803 Y156.162 E4.91059
G1 X149.014 Y155.740 E4.95350
G1 X149.302 Y155.373 E4.99595
G1 X149.563 Y155.146 E5.02738
G1 X149.620 Y155.096 F7800.000
G1 E3.02738 F2400.00000
G92 E0
G1 X154.112 Y158.803 F7800.000
G1 E2.00000 F2400.00000
G1 F1800
G1 X154.400 Y158.871 E2.02696
G1 X154.400 Y160.400 E2.16600
G1 X152.845 Y160.400 E2.30740
G1 X152.770 Y160.123 E2.33350
G1 X153.113 Y159.924 E2.36952
G1 X153.608 Y159.492 E2.42927
G1 X154.046 Y158.933 E2.49387
G1 X154.078 Y158.870 E2.50027
G1 E0.50027 F2400.00000
G92 E0
G1 X51.979 Y156.956 F7800.000
G1 E2.00000 F2400.00000
G1 F1800
G1 X51.939 Y157.491 E2.04871
G1 X51.784 Y158.062 E2.10253
G1 X51.516 Y158.597 E2.15692
G1 X51.146 Y159.067 E2.21131
G1 X50.690 Y159.454 E2.26570
G1 X50.166 Y159.742 E2.32008
G1 X49.601 Y159.918 E2.37391
G1 X49.069 Y159.978 E2.42262
G1 X48.478 Y159.934 E2.47645
G1 X47.903 Y159.771 E2.53083
G1 X47.377 Y159.498 E2.58469
G1 X46.953 Y159.165 E2.63370
G1 X46.567 Y158.721 E2.68722
G1 X46.273 Y158.201 E2.74158
G1 X46.088 Y157.632 E2.79597
G1 X46.021 Y157.044 E2.84979
G1 X46.061 Y156.509 E2.89850
G1 X46.216 Y155.938 E2.95233
G1 X46.484 Y155.403 E3.00672
G1 X46.854 Y154.933 E3.06110
G1 X47.310 Y154.546 E3.11549
G1 X47.834 Y154.258 E3.16988
G1 X48.399 Y154.082 E3.22374
G1 X48.935 Y154.022 E3.27275
G1 X49.522 Y154.066 E3.32627
G1 X50.097 Y154.229 E3.38063
G1 X50.628 Y154.504 E3.43501
G1 X51.094 Y154.880 E3.48940
G1 X51.475 Y155.341 E3.54379
G1 X51.754 Y155.863 E3.59761
G1 X51.913 Y156.374 E3.64632
G1 X51.970 Y156.882 E3.69277
G1 X51.351 Y156.968 F7800.000
G1 F1800
G1 X51.320 Y157.385 E3.73074
G1 X51.197 Y157.838 E3.77346
G1 X50.986 Y158.260 E3.81638
G1 X50.694 Y158.631 E3.85931
G1 X50.334 Y158.937 E3.90223
G1 X49.920 Y159.164 E3.94516
G1 X49.472 Y159.304 E3.98788
G1 X49.057 Y159.351 E4.02585
G1 X48.588 Y159.315 E4.06857
G1 X48.134 Y159.187 E4.11149
G1 X47.717 Y158.971 E4.15423
G1 X47.386 Y158.710 E4.19248
G1 X47.080 Y158.358 E4.23492
G1 X46.848 Y157.948 E4.27783
G1 X46.702 Y157.499 E4.32076
G1 X46.649 Y157.032 E4.36348
G1 X46.680 Y156.615 E4.40145
G1 X46.803 Y156.162 E4.44417
G1 X47.014 Y155.740 E4.48709
G1 X47.306 Y155.369 E4.53002
G1 X47.666 Y155.063 E4.57294
G1 X48.080 Y154.836 E4.61586
G1 X48.528 Y154.696 E4.65860
G1 X48.946 Y154.649 E4.69685
G1 X49.412 Y154.685 E4.73929
G1 X49.866 Y154.813 E4.78220
G1 X50.285 Y155.030 E4.82513
G1 X50.652 Y155.327 E4.86805
G1 X50.953 Y155.690 E4.91097
G1 X51.175 Y156.105 E4.95370
G1 X51.299 Y156.504 E4.99167
G1 X51.343 Y156.894 E5.02737
G1 X51.351 Y156.968 F7800.000
G1 E3.02737 F2400.00000
G92 E0
G1 X47.137 Y160.400 F7800.000
G1 E2.00000 F2400.00000
G1 F1800
G1 X45.600 Y160.400 E2.13980
G1 X45.600 Y158.847 E2.28100
G1 X45.879 Y158.774 E2.30727
G1 X46.054 Y159.083 E2.33962
G1 X46.521 Y159.620 E2.40422
G1 X47.037 Y160.026 E2.46399
G1 X47.207 Y160.114 E2.48138
G1 X47.155 Y160.327 E2.50135
G1 E0.50135 F2400.00000
G92 E0
G1 X49.000 Y45.980 F7800.000
G1 E2.00000 F2400.00000
G1 F1800
G1 X48.412 Y45.921 E2.05377
G1 X47.897 Y45.768 E2.10256
G1 X47.371 Y45.495 E2.15643
G1 X46.906 Y45.120 E2.21074
G1 X46.525 Y44.660 E2.26510
G1 X46.243 Y44.132 E2.31950
G1 X46.075 Y43.564 E2.37335
G1 X46.021 Y43.031 E2.42209
G1 X46.073 Y42.441 E2.47591
G1 X46.242 Y41.874 E2.52976
G1 X46.488 Y41.398 E2.57852
G1 X46.850 Y40.938 E2.63170
G1 X47.254 Y40.586 E2.68040
G1 X47.765 Y40.288 E2.73423
G1 X48.332 Y40.096 E2.78867
G1 X48.929 Y40.021 E2.84334
G1 X49.521 Y40.066 E2.89733
G1 X50.091 Y40.227 E2.95119
G1 X50.570 Y40.468 E2.99998
G1 X51.040 Y40.828 E3.05376
G1 X51.433 Y41.279 E3.10815
G1 X51.727 Y41.799 E3.16250
G1 X51.912 Y42.368 E3.21693
G1 X51.980 Y42.963 E3.27132
G1 X51.927 Y43.559 E3.32571
G1 X51.757 Y44.132 E3.38012
G1 X51.475 Y44.660 E3.43452
G1 X51.094 Y45.120 E3.48887
G1 X50.629 Y45.495 E3.54319
G1 X50.103 Y45.768 E3.59706
G1 X49.588 Y45.921 E3.64585
G1 X49.075 Y45.972 E3.69280
G1 X49.000 Y45.352 F7800.000
G1 F1800
G1 X48.533 Y45.305 E3.73550
G1 X48.132 Y45.186 E3.77349
G1 X47.715 Y44.969 E3.81624
G1 X47.348 Y44.673 E3.85914
G1 X47.047 Y44.310 E3.90204
G1 X46.824 Y43.894 E3.94496
G1 X46.691 Y43.443 E3.98770
G1 X46.649 Y43.027 E4.02571
G1 X46.690 Y42.559 E4.06843
G1 X46.824 Y42.109 E4.11118
G1 X47.016 Y41.738 E4.14916
G1 X47.305 Y41.371 E4.19162
G1 X47.620 Y41.096 E4.22959
G1 X48.025 Y40.860 E4.27231
G1 X48.473 Y40.708 E4.31526
G1 X48.944 Y40.649 E4.35845
G1 X49.411 Y40.685 E4.40106
G1 X49.864 Y40.812 E4.44378
G1 X50.237 Y41.000 E4.48179
G1 X50.610 Y41.286 E4.52450
G1 X50.920 Y41.642 E4.56743
G1 X51.152 Y42.052 E4.61033
G1 X51.298 Y42.501 E4.65328
G1 X51.352 Y42.971 E4.69621
G1 X51.310 Y43.441 E4.73914
G1 X51.176 Y43.894 E4.78208
G1 X50.953 Y44.310 E4.82500
G1 X50.652 Y44.673 E4.86790
G1 X50.285 Y44.969 E4.91080
G1 X49.868 Y45.186 E4.95355
G1 X49.467 Y45.305 E4.99154
G1 X49.075 Y45.344 E5.02743
G1 X49.000 Y45.352 F7800.000
G1 E3.02743 F2400.00000
G92 E0
G1 X45.600 Y41.132 F7800.000
G1 E2.00000 F2400.00000
G1 F1800
G1 X45.600 Y39.600 E2.13931
G1 X47.155 Y39.600 E2.28072
G1 X47.230 Y39.877 E2.30683
G1 X46.888 Y40.076 E2.34280
G1 X46.395 Y40.505 E2.40223
G1 X45.960 Y41.058 E2.46614
G1 X45.886 Y41.201 E2.48086
G1 X45.673 Y41.150 E2.50083
G1 E0.50083 F2400.00000
G92 E0
G1 X52.400 Y46.400 F7800.000
G1 E2.00000 F2400.00000
G1 F1800
G1 X147.600 Y46.400 E10.65646
G1 X147.600 Y153.600 E20.40407
G1 X52.400 Y153.600 E29.06052
G1 X52.400 Y46.475 E38.80131
G1 X53.025 Y47.025 F7800.000
G1 F1800
G1 X146.975 Y47.025 E47.34412
G1 X146.975 Y152.975 E56.97809
G1 X53.025 Y152.975 E65.52091
G1 X53.025 Y47.100 E75.14806
G1 X53.650 Y47.650 F7800.000
G1 F1800
G1 X146.350 Y47.650 E83.57723
G1 X146.350 Y152.350 E93.09755
G1 X53.650 Y152.350 E101.52673
G1 X53.650 Y47.725 E111.04023
G1 X53.530 Y47.165 F7800.000
G1 E109.04023 F2400.00000
G92 E0
G1 X50.883 Y39.600 F7800.000
G1 E2.00000 F2400.00000
G1 F1800
G1 X149.155 Y39.600 E10.93586
G1 X149.230 Y39.877 E10.96196
G1 X148.888 Y40.076 E10.99795
G1 X148.395 Y40.505 E11.05736
G1 X147.960 Y41.058 E11.12126
G1 X147.659 Y41.639 E11.18081
G1 X147.456 Y42.324 E11.24578
G1 X147.393 Y43.035 E11.31068
G1 X147.459 Y43.686 E11.37014
G1 X147.662 Y44.371 E11.43512
G1 X148.004 Y45.010 E11.50101
G1 X148.465 Y45.567 E11.56682
G1 X149.028 Y46.021 E11.63254
G1 X149.662 Y46.350 E11.69753
G1 X150.291 Y46.537 E11.75712
G1 X151.000 Y46.608 E11.82196
G1 X151.709 Y46.537 E11.88679
G1 X152.338 Y46.350 E11.94638
G1 X152.972 Y46.021 E12.01137
G1 X153.535 Y45.567 E12.07710
G1 X153.996 Y45.010 E12.14290
G1 X154.116 Y44.785 E12.16606
G1 X154.400 Y44.856 E12.19267
G1 X154.400 Y155.150 E22.22163
G1 X154.123 Y155.225 E22.24773
G1 X153.939 Y154.908 E22.28105
G1 X153.476 Y154.378 E22.34505
G1 X152.962 Y153.974 E22.40450
G1 X152.328 Y153.645 E22.46943
G1 X151.632 Y153.448 E22.53524
G1 X150.913 Y153.393 E22.60076
G1 X150.192 Y153.484 E22.66687
G1 X149.509 Y153.715 E22.73246
G1 X148.888 Y154.076 E22.79777
G1 X148.392 Y154.508 E22.85758
G1 X147.954 Y155.067 E22.92218
G1 X147.629 Y155.714 E22.98799
G1 X147.440 Y156.413 E23.05384
G1 X147.395 Y157.136 E23.11969
G1 X147.494 Y157.853 E23.18553
G1 X147.732 Y158.527 E23.25047
G1 X148.061 Y159.092 E23.30993
G1 X148.530 Y159.630 E23.37480
G1 X149.203 Y160.146 E23.45193
G1 X149.117 Y160.400 E23.47636
G1 X50.851 Y160.400 E32.41161
G1 X50.779 Y160.119 E32.43806
G1 X51.047 Y159.971 E32.46586
G1 X51.599 Y159.503 E32.53171
G1 X52.046 Y158.933 E32.59756
G1 X52.371 Y158.286 E32.66341
G1 X52.557 Y157.597 E32.72834
G1 X52.606 Y156.945 E32.78779
G1 X52.527 Y156.245 E32.85180
G1 X52.333 Y155.621 E32.91125
G1 X51.997 Y154.991 E32.97618
G1 X51.535 Y154.433 E33.04203
G1 X50.971 Y153.978 E33.10788
G1 X50.328 Y153.645 E33.17373
G1 X49.632 Y153.448 E33.23953
G1 X48.924 Y153.394 E33.30413
G1 X48.270 Y153.468 E33.36390
G1 X47.588 Y153.680 E33.42889
G1 X46.953 Y154.029 E33.49474
G1 X46.401 Y154.497 E33.56059
G1 X45.954 Y155.067 E33.62644
G1 X45.888 Y155.197 E33.63971
G1 X45.600 Y155.129 E33.66667
G1 X45.600 Y44.856 E43.69371
G1 X45.884 Y44.785 E43.72033
G1 X46.004 Y45.010 E43.74348
G1 X46.465 Y45.567 E43.80929
G1 X47.028 Y46.021 E43.87502
G1 X47.662 Y46.350 E43.94000
G1 X48.290 Y46.537 E43.99959
G1 X49.000 Y46.608 E44.06443
G1 X49.710 Y46.537 E44.12927
G1 X50.338 Y46.350 E44.18885
G1 X50.972 Y46.021 E44.25383
G1 X51.535 Y45.567 E44.31957
G1 X51.996 Y45.010 E44.38538
G1 X52.338 Y44.371 E44.45126
G1 X52.544 Y43.676 E44.51714
G1 X52.608 Y42.955 E44.58299
G1 X52.526 Y42.235 E44.64884
G1 X52.302 Y41.546 E44.71474
G1 X51.945 Y40.916 E44.78055
G1 X51.470 Y40.370 E44.84639
G1 X50.796 Y39.854 E44.92352
G1 X50.859 Y39.671 E44.94115
G1 E42.94115 F2400.00000
G92 E0
G1 X148.021 Y43.031 F7800.000
G1 E2.00000 F2400.00000
G1 F1800
G1 X148.073 Y42.442 E2.05381
G1 X148.242 Y41.874 E2.10767
G1 X148.488 Y41.398 E2.15643
G1 X148.850 Y40.938 E2.20962
G1 X149.254 Y40.586 E2.25831
G1 X149.765 Y40.288 E2.31214
G1 X150.332 Y40.096 E2.36659
G1 X150.929 Y40.021 E2.42125
G1 X151.521 Y40.066 E2.47524
G1 X152.091 Y40.227 E2.52914
G1 X152.573 Y40.470 E2.57821
G1 X153.040 Y40.828 E2.63170
G1 X153.433 Y41.279 E2.68606
G1 X153.727 Y41.799 E2.74042
G1 X153.912 Y42.368 E2.79484
G1 X153.980 Y42.963 E2.84922
G1 X153.927 Y43.558 E2.90360
G1 X153.757 Y44.132 E2.95803
G1 X153.475 Y44.660 E3.01244
G1 X153.094 Y45.120 E3.06678
G1 X152.629 Y45.495 E3.12110
G1 X152.103 Y45.768 E3.17496
G1 X151.588 Y45.921 E3.22376
G1 X151.000 Y45.980 E3.27753
G1 X150.412 Y45.921 E3.33129
G1 X149.897 Y45.768 E3.38009
G1 X149.371 Y45.495 E3.43396
G1 X148.906 Y45.120 E3.48827
G1 X148.525 Y44.660 E3.54262
G1 X148.243 Y44.132 E3.59702
G1 X148.075 Y43.564 E3.65089
G1 X148.029 Y43.106 E3.69280
G1 X148.649 Y43.027 F7800.000
G1 F1800
G1 X148.690 Y42.559 E3.73552
G1 X148.824 Y42.109 E3.77827
G1 X149.016 Y41.738 E3.81625
G1 X149.305 Y41.371 E3.85872
G1 X149.619 Y41.096 E3.89669
G1 X150.025 Y40.860 E3.93941
G1 X150.473 Y40.708 E3.98236
G1 X150.944 Y40.649 E4.02554
G1 X151.411 Y40.685 E4.06815
G1 X151.864 Y40.812 E4.11090
G1 X152.240 Y41.002 E4.14918
G1 X152.610 Y41.286 E4.19161
G1 X152.920 Y41.642 E4.23453
G1 X153.152 Y42.052 E4.27743
G1 X153.298 Y42.501 E4.32037
G1 X153.352 Y42.971 E4.36330
G1 X153.310 Y43.441 E4.40623
G1 X153.176 Y43.894 E4.44918
G1 X152.953 Y44.310 E4.49210
G1 X152.652 Y44.673 E4.53500
G1 X152.285 Y44.969 E4.57790
G1 X151.868 Y45.186 E4.62064
G1 X151.467 Y45.305 E4.65865
G1 X151.000 Y45.352 E4.70134
G1 X150.533 Y45.305 E4.74404
G1 X150.132 Y45.186 E4.78204
G1 X149.715 Y44.969 E4.82479
G1 X149.348 Y44.673 E4.86769
G1 X149.047 Y44.310 E4.91059
G1 X148.824 Y43.894 E4.95351
G1 X148.690 Y43.443 E4.99626
G1 X148.656 Y43.102 E5.02743
G1 X148.649 Y43.027 F7800.000
G1 E3.02743 F2400.00000
G92 E0
G1 X152.883 Y39.600 F7800.000
G1 E2.00000 F2400.00000
G1 F1800
G1 X154.400 Y39.600 E2.13794
G1 X154.400 Y41.153 E2.27914
G1 X154.121 Y41.226 E2.30541
G1 X153.945 Y40.916 E2.33781
G1 X153.470 Y40.370 E2.40361
G1 X152.797 Y39.854 E2.48075
G1 X152.859 Y39.671 E2.49837
G1 E0.49837 F2400.00000
G92 E0
G1 X155.025 Y38.975 F7800.000
G1 E2.00000 F2400.00000
G1 F1800
G1 X155.025 Y161.025 E13.09798
G1 X44.975 Y161.025 E23.10480
G1 X44.975 Y38.975 E34.20277
G1 X154.950 Y38.975 E44.20277
G1 X155.650 Y38.350 F7800.000
G1 F1800
G1 X155.650 Y161.650 E55.41439
G1 X44.350 Y161.650 E65.53485
G1 X44.350 Y38.350 E76.74647
G1 X155.575 Y38.350 E86.86011
G1 X155.529 Y38.835 F7800.000
G1 E84.86011 F2400.00000
G92 E0
G1 X154.088 Y40.169 F7800.000
G1 E2.00000 F2400.00000
G1 F1800
G1 X153.475 Y39.926 E2.01935
G1 X152.536 Y39.651 F7800.000
G1 F1800
G1 X152.088 Y39.589 E2.05634
G1 F1800
G1 X151.641 Y39.527 E2.08811
G1 F1800
G1 X150.937 Y39.498 E2.12946
G1 F1800
G1 X150.563 Y39.519 E2.14837
G1 F1800
G1 X150.179 Y39.545 E2.17240
G1 F1800
G1 X149.723 Y39.621 E2.20482
G1 F1800
G1 X149.494 Y39.658 E2.22376
G1 E0.22376 F2400.00000
G92 E0
G1 X154.344 Y41.491 F7800.000
G1 E2.00000 F2400.00000
G1 F1800
G1 X154.382 Y41.735 E2.02026
G1 F1800
G1 X154.460 Y42.224 E2.05445
G1 F1800
G1 X154.484 Y42.604 E2.07777
G1 F1800
G1 X154.503 Y42.977 E2.09652
G1 F1800
G1 X154.469 Y43.687 E2.13911
G1 F1800
G1 X154.408 Y44.104 E2.16901
G1 F1800
G1 X154.348 Y44.521 E2.20352
G1 E0.20352 F2400.00000
G92 E0
G1 X148.468 Y45.933 F7800.000
G1 E2.00000 F2400.00000
G1 F1800
G1 X147.982 Y46.419 E2.06280
G1 X147.982 Y47.304 E2.14358
G1 X148.963 Y46.322 E2.27035
G1 X149.545 Y46.624 E2.33027
G1 X147.982 Y48.188 E2.53225
G1 X147.982 Y49.072 E2.61303
G1 X150.206 Y46.848 E2.90033
G1 X150.412 Y46.910 E2.92003
G1 X150.973 Y46.966 E2.97145
G1 X147.982 Y49.957 E3.35782
G1 X147.982 Y50.841 E3.43859
G1 X151.895 Y46.927 E3.94413
G1 X152.074 Y46.910 E3.96052
G1 X152.816 Y46.689 E4.03123
G1 X153.235 Y46.472 E4.07440
G1 X147.982 Y51.725 E4.75306
G1 X147.982 Y52.609 E4.83383
G1 X154.018 Y46.573 E5.61367
