; generated by Slic3r 1.3.0 on 2021-02-08 at 22:44:56

; external perimeters extrusion width = 0.55mm (4.37mm^3/s)
; perimeters extrusion width = 0.70mm (11.44mm^3/s)
; infill extrusion width = 0.62mm (13.45mm^3/s)
; solid infill extrusion width = 0.70mm (3.81mm^3/s)
; top infill extrusion width = 0.70mm (2.86mm^3/s)

M107
M190 S60 ; set bed temperature and wait for it to be reached
M104 S230 ; set temperature
G28 ; home all axes
G1 Z5 F5000 ; lift nozzle

; Filament gcode

M109 S230 ; set temperature and wait for it to be reached
G21 ; set units to millimeters
G90 ; use absolute coordinates
M82 ; use absolute distances for extrusion
G92 E0
G1 Z0.350 F7800.000
G1 E-2.00000 F2400.00000
G92 E0
G1 X31.668 Y39.274 F7800.000
G1 E2.00000 F2400.00000
G1 F1800
G1 X33.820 Y38.481 E2.20854
G1 X35.000 Y38.375 E2.31625
G1 X85.000 Y38.375 E6.86273
G1 X87.259 Y38.772 E7.07127
G1 X89.247 Y39.915 E7.27982
G1 X90.726 Y41.668 E7.48836
G1 X91.519 Y43.820 E7.69690
G1 X91.625 Y45.000 E7.80461
G1 X91.625 Y75.000 E10.53250
G1 X91.228 Y77.259 E10.74104
G1 X90.085 Y79.247 E10.94958
G1 X88.332 Y80.726 E11.15812
G1 X86.180 Y81.519 E11.36667
G1 X85.000 Y81.625 E11.47438
G1 X35.000 Y81.625 E16.02085
G1 X32.741 Y81.228 E16.22940
G1 X30.753 Y80.085 E16.43794
G1 X29.274 Y78.332 E16.64648
G1 X28.481 Y76.180 E16.85502
G1 X28.375 Y75.000 E16.96273
G1 X28.375 Y45.000 E19.69062
G1 X28.772 Y42.741 E19.89916
G1 X29.915 Y40.753 E20.10770
G1 X31.611 Y39.322 E20.30943
G1 E18.30943 F2400.00000
G92 E0
G1 X83.400 Y73.400 F7800.000
G1 E2.00000 F2400.00000
G1 F1800
G1 X36.600 Y73.400 E6.25554
G1 X36.600 Y46.600 E8.69250
G1 X83.400 Y46.600 E12.94804
G1 X83.400 Y73.325 E15.37818
G1 X84.025 Y74.025 F7800.000
G1 F1800
G1 X35.975 Y74.025 E19.74736
G1 X35.975 Y45.975 E22.29796
G1 X84.025 Y45.975 E26.66715
G1 X84.025 Y73.950 E29.21092
G1 X84.650 Y74.650 F7800.000
G1 F1800
G1 X35.350 Y74.650 E33.69375
G1 X35.350 Y45.350 E36.35799
G1 X84.650 Y45.350 E40.84082
G1 X84.650 Y74.575 E43.49823
G1 X84.158 Y74.561 F7800.000
G1 E41.49823 F2400.00000
G92 E0
G1 X82.532 Y73.018 F7800.000
G1 E2.00000 F2400.00000
G1 F1800
G1 X83.018 Y72.532 E2.06288
G1 X83.018 Y71.643 E2.14415
G1 X81.643 Y73.018 E2.32197
G1 X80.755 Y73.018 E2.40325
G1 X83.018 Y70.755 E2.69601
G1 X83.018 Y69.866 E2.77728
G1 X79.866 Y73.018 E3.18498
G1 X78.977 Y73.018 E3.26626
G1 X83.018 Y68.977 E3.78890
G1 X83.018 Y68.088 E3.87018
G1 X78.088 Y73.018 E4.50776
G1 X77.200 Y73.018 E4.58903
G1 X83.018 Y67.200 E5.34156
G1 X83.018 Y66.311 E5.42283
G1 X76.311 Y73.018 E6.29030
G1 X75.422 Y73.018 E6.37157
G1 X83.018 Y65.422 E7.35398
G1 X83.018 Y64.533 E7.43525
G1 X74.533 Y73.018 E8.53260
G1 X73.645 Y73.018 E8.61387
G1 X83.018 Y63.645 E9.82616
G1 X83.018 Y62.756 E9.90744
G1 X72.756 Y73.018 E11.23467
G1 X71.867 Y73.018 E11.31594
G1 X83.018 Y61.867 E12.75811
G1 X83.018 Y60.978 E12.83939
G1 X70.978 Y73.018 E14.39650
G1 X70.089 Y73.018 E14.47777
G1 X83.018 Y60.090 E16.14982
G1 X83.018 Y59.201 E16.23110
G1 X69.201 Y73.018 E18.01809
G1 X68.312 Y73.018 E18.09937
G1 X83.018 Y58.312 E20.00130
G1 X83.018 Y57.423 E20.08257
G1 X67.423 Y73.018 E22.09945
G1 X66.534 Y73.018 E22.18072
G1 X83.018 Y56.534 E24.31254
G1 X83.018 Y55.646 E24.39381
G1 X65.646 Y73.018 E26.64057
G1 X64.757 Y73.018 E26.72185
G1 X83.018 Y54.757 E29.08354
G1 X83.018 Y53.868 E29.16482
G1 X63.868 Y73.018 E31.64146
G1 X62.979 Y73.018 E31.72273
G1 X83.018 Y52.979 E34.31431
G1 X83.018 Y52.091 E34.39559
G1 X62.091 Y73.018 E37.10211
G1 X61.202 Y73.018 E37.18338
G1 X83.018 Y51.202 E40.00484
G1 X83.018 Y50.313 E40.08612
G1 X60.313 Y73.018 E43.02252
G1 X59.424 Y73.018 E43.10380
G1 X83.018 Y49.424 E46.15514
G1 X83.018 Y48.536 E46.23641
G1 X58.536 Y73.018 E49.40270
G1 X57.647 Y73.018 E49.48397
G1 X83.018 Y47.647 E52.76520
G1 X83.018 Y46.982 E52.82603
G1 X82.795 Y46.982 E52.84647
G1 X56.758 Y73.018 E56.21372
G1 X55.869 Y73.018 E56.29500
G1 X81.906 Y46.982 E59.66225
G1 X81.017 Y46.982 E59.74353
G1 X54.981 Y73.018 E63.11078
G1 X54.092 Y73.018 E63.19205
G1 X80.129 Y46.982 E66.55930
G1 X79.240 Y46.982 E66.64058
G1 X53.203 Y73.018 E70.00783
G1 X52.314 Y73.018 E70.08911
G1 X78.351 Y46.982 E73.45636
G1 X77.462 Y46.982 E73.53763
G1 X51.425 Y73.018 E76.90488
G1 X50.537 Y73.018 E76.98616
G1 X76.573 Y46.982 E80.35341
G1 X75.685 Y46.982 E80.43469
G1 X49.648 Y73.018 E83.80194
G1 X48.759 Y73.018 E83.88321
G1 X74.796 Y46.982 E87.25046
G1 X73.907 Y46.982 E87.33174
G1 X47.870 Y73.018 E90.69899
G1 X46.982 Y73.018 E90.78027
G1 X73.018 Y46.982 E94.14752
G1 X72.130 Y46.982 E94.22879
G1 X46.093 Y73.018 E97.59604
G1 X45.204 Y73.018 E97.67732
G1 X71.241 Y46.982 E101.04457
G1 X70.352 Y46.982 E101.12585
G1 X44.315 Y73.018 E104.49310
G1 X43.427 Y73.018 E104.57437
G1 X69.463 Y46.982 E107.94162
G1 X68.575 Y46.982 E108.02290
G1 X42.538 Y73.018 E111.39015
G1 X41.649 Y73.018 E111.47143
G1 X67.686 Y46.982 E114.83868
G1 X66.797 Y46.982 E114.91995
G1 X40.760 Y73.018 E118.28720
G1 X39.872 Y73.018 E118.36848
G1 X65.908 Y46.982 E121.73573
G1 X65.020 Y46.982 E121.81701
G1 X38.983 Y73.018 E125.18426
G1 X38.094 Y73.018 E125.26553
G1 X64.131 Y46.982 E128.63278
G1 X63.242 Y46.982 E128.71406
G1 X37.205 Y73.018 E132.08131
G1 X36.982 Y73.018 E132.10176
G1 X36.982 Y72.353 E132.16259
G1 X62.353 Y46.982 E135.44381
G1 X61.464 Y46.982 E135.52509
G1 X36.982 Y71.464 E138.69138
G1 X36.982 Y70.576 E138.77265
G1 X60.576 Y46.982 E141.82400
G1 X59.687 Y46.982 E141.90527
G1 X36.982 Y69.687 E144.84168
G1 X36.982 Y68.798 E144.92295
G1 X58.798 Y46.982 E147.74442
G1 X57.909 Y46.982 E147.82569
G1 X36.982 Y67.909 E150.53222
G1 X36.982 Y67.021 E150.61349
G1 X57.021 Y46.982 E153.20507
G1 X56.132 Y46.982 E153.28635
G1 X36.982 Y66.132 E155.76299
G1 X36.982 Y65.243 E155.84427
G1 X55.243 Y46.982 E158.20597
G1 X54.354 Y46.982 E158.28724
G1 X36.982 Y64.354 E160.53400
G1 X36.982 Y63.466 E160.61528
G1 X53.466 Y46.982 E162.74709
G1 X52.577 Y46.982 E162.82837
G1 X36.982 Y62.577 E164.84525
G1 X36.982 Y61.688 E164.92652
G1 X51.688 Y46.982 E166.82846
G1 X50.799 Y46.982 E166.90973
G1 X36.982 Y60.799 E168.69673
G1 X36.982 Y59.911 E168.77800
G1 X49.911 Y46.982 E170.45006
G1 X49.022 Y46.982 E170.53133
G1 X36.982 Y59.022 E172.08845
G1 X36.982 Y58.133 E172.16972
G1 X48.133 Y46.982 E173.61190
G1 X47.244 Y46.982 E173.69317
G1 X36.982 Y57.244 E175.02040
G1 X36.982 Y56.355 E175.10168
G1 X46.355 Y46.982 E176.31397
G1 X45.467 Y46.982 E176.39524
G1 X36.982 Y55.467 E177.49259
G1 X36.982 Y54.578 E177.57387
G1 X44.578 Y46.982 E178.55628
G1 X43.689 Y46.982 E178.63755
G1 X36.982 Y53.689 E179.50502
G1 X36.982 Y52.800 E179.58630
G1 X42.800 Y46.982 E180.33882
G1 X41.912 Y46.982 E180.42010
G1 X36.982 Y51.912 E181.05768
G1 X36.982 Y51.023 E181.13896
G1 X41.023 Y46.982 E181.66160
G1 X40.134 Y46.982 E181.74288
G1 X36.982 Y50.134 E182.15058
G1 X36.982 Y49.245 E182.23186
G1 X39.245 Y46.982 E182.52462
G1 X38.357 Y46.982 E182.60590
G1 X36.982 Y48.357 E182.78372
G1 X36.982 Y47.468 E182.86499
G1 X37.468 Y46.982 E182.92787
G1 Z0.650 F7800.000
G1 X83.529 Y73.529 F7800.000
G1 F3600
G1 X36.471 Y73.529 E186.65850
G1 X36.471 Y46.471 E188.80356
G1 X83.529 Y46.471 E192.53419
G1 X83.529 Y73.454 E194.67331
G1 X84.164 Y74.164 F7800.000
G1 F3600
G1 X35.836 Y74.164 E198.50471
G1 X35.836 Y45.836 E200.75056
G1 X84.164 Y45.836 E204.58197
G1 X84.164 Y74.089 E206.82187
G1 X84.725 Y74.725 F7800.000
G1 F1800
G1 X35.275 Y74.725 E209.81701
G1 X35.275 Y45.275 E211.60077
G1 X84.725 Y45.275 E214.59592
G1 X84.725 Y74.650 E216.37514
G1 X84.233 Y74.636 F7800.000
G1 X83.140 Y47.354 F7800.000
G1 F1200
G1 X82.646 Y46.860 E216.43102
G1 X81.740 Y46.860 E216.50341
G1 X83.140 Y48.260 E216.66166
G1 X83.140 Y49.166 E216.73405
G1 X80.834 Y46.860 E216.99468
G1 X79.928 Y46.860 E217.06707
G1 X83.140 Y50.072 E217.43008
G1 X83.140 Y50.978 E217.50247
G1 X79.022 Y46.860 E217.96785
G1 X78.116 Y46.860 E218.04024
G1 X83.140 Y51.884 E218.60799
G1 X83.140 Y52.790 E218.68038
G1 X77.210 Y46.860 E219.35051
G1 X76.304 Y46.860 E219.42290
G1 X83.140 Y53.696 E220.19541
G1 X83.140 Y54.602 E220.26780
G1 X75.398 Y46.860 E221.14267
G1 X74.492 Y46.860 E221.21506
G1 X83.140 Y55.508 E222.19232
G1 X83.140 Y56.414 E222.26471
G1 X73.586 Y46.860 E223.34433
G1 X72.680 Y46.860 E223.41672
G1 X83.140 Y57.320 E224.59872
G1 X83.140 Y58.226 E224.67111
G1 X71.774 Y46.860 E225.95549
G1 X70.868 Y46.860 E226.02788
G1 X83.140 Y59.132 E227.41463
G1 X83.140 Y60.038 E227.48702
G1 X69.962 Y46.860 E228.97614
G1 X69.056 Y46.860 E229.04853
G1 X83.140 Y60.944 E230.64003
G1 X83.140 Y61.850 E230.71242
G1 X68.150 Y46.860 E232.40630
G1 X67.244 Y46.860 E232.47869
G1 X83.140 Y62.756 E234.27493
G1 X83.140 Y63.662 E234.34732
G1 X66.338 Y46.860 E236.24595
G1 X65.432 Y46.860 E236.31834
G1 X83.140 Y64.568 E238.31933
G1 X83.140 Y65.474 E238.39172
G1 X64.526 Y46.860 E240.49509
G1 X63.620 Y46.860 E240.56748
G1 X83.140 Y66.380 E242.77323
G1 X83.140 Y67.286 E242.84562
G1 X62.714 Y46.860 E245.15374
G1 X61.808 Y46.860 E245.22613
G1 X83.140 Y68.192 E247.63662
G1 X83.140 Y69.098 E247.70901
G1 X60.902 Y46.860 E250.22188
G1 X59.996 Y46.860 E250.29427
G1 X83.140 Y70.004 E252.90952
G1 X83.140 Y70.910 E252.98191
G1 X59.090 Y46.860 E255.69952
G1 X58.184 Y46.860 E255.77191
G1 X83.140 Y71.816 E258.59191
G1 X83.140 Y72.722 E258.66430
G1 X57.278 Y46.860 E261.58666
G1 X56.372 Y46.860 E261.65905
G1 X82.653 Y73.140 E264.62874
G1 X81.747 Y73.140 E264.70113
G1 X55.466 Y46.860 E267.67082
G1 X54.560 Y46.860 E267.74321
G1 X80.841 Y73.140 E270.71290
G1 X79.935 Y73.140 E270.78529
G1 X53.654 Y46.860 E273.75498
G1 X52.749 Y46.860 E273.82737
G1 X79.029 Y73.140 E276.79705
G1 X78.123 Y73.140 E276.86944
G1 X51.843 Y46.860 E279.83913
G1 X50.937 Y46.860 E279.91152
G1 X77.217 Y73.140 E282.88121
G1 X76.311 Y73.140 E282.95360
G1 X50.031 Y46.860 E285.92329
G1 X49.125 Y46.860 E285.99568
G1 X75.405 Y73.140 E288.96537
G1 X74.499 Y73.140 E289.03776
G1 X48.219 Y46.860 E292.00744
G1 X47.313 Y46.860 E292.07983
G1 X73.593 Y73.140 E295.04952
G1 X72.687 Y73.140 E295.12191
G1 X46.407 Y46.860 E298.09160
G1 X45.501 Y46.860 E298.16399
G1 X71.781 Y73.140 E301.13368
G1 X70.875 Y73.140 E301.20607
G1 X44.595 Y46.860 E304.17575
G1 X43.689 Y46.860 E304.24814
G1 X69.969 Y73.140 E307.21783
G1 X69.063 Y73.140 E307.29022
G1 X42.783 Y46.860 E310.25991
G1 X41.877 Y46.860 E310.33230
G1 X68.157 Y73.140 E313.30199
G1 X67.252 Y73.140 E313.37438
G1 X40.971 Y46.860 E316.34407
G1 X40.065 Y46.860 E316.41646
G1 X66.346 Y73.140 E319.38614
G1 X65.440 Y73.140 E319.45853
G1 X39.159 Y46.860 E322.42822
G1 X38.253 Y46.860 E322.50061
G1 X64.534 Y73.140 E325.47030
G1 X63.628 Y73.140 E325.54269
G1 X37.347 Y46.860 E328.51238
G1 X36.860 Y46.860 E328.55131
G1 X36.860 Y47.278 E328.58477
G1 X62.722 Y73.140 E331.50714
G1 X61.816 Y73.140 E331.57953
G1 X36.860 Y48.184 E334.39952
G1 X36.860 Y49.090 E334.47191
G1 X60.910 Y73.140 E337.18953
G1 X60.004 Y73.140 E337.26192
G1 X36.860 Y49.996 E339.87717
G1 X36.860 Y50.902 E339.94956
G1 X59.098 Y73.140 E342.46243
G1 X58.192 Y73.140 E342.53482
G1 X36.860 Y51.808 E344.94532
G1 X36.860 Y52.714 E345.01771
G1 X57.286 Y73.140 E347.32583
G1 X56.380 Y73.140 E347.39822
G1 X36.860 Y53.620 E349.60397
G1 X36.860 Y54.526 E349.67636
G1 X55.474 Y73.140 E351.77973
G1 X54.568 Y73.140 E351.85212
G1 X36.860 Y55.432 E353.85312
G1 X36.860 Y56.338 E353.92551
G1 X53.662 Y73.140 E355.82414
G1 X52.756 Y73.140 E355.89653
G1 X36.860 Y57.244 E357.69278
G1 X36.860 Y58.150 E357.76517
G1 X51.850 Y73.140 E359.45904
G1 X50.944 Y73.140 E359.53143
G1 X36.860 Y59.056 E361.12294
G1 X36.860 Y59.962 E361.19533
G1 X50.038 Y73.140 E362.68445
G1 X49.132 Y73.140 E362.75684
G1 X36.860 Y60.868 E364.14360
G1 X36.860 Y61.774 E364.21598
G1 X48.226 Y73.140 E365.50036
G1 X47.320 Y73.140 E365.57275
G1 X36.860 Y62.680 E366.75476
G1 X36.860 Y63.586 E366.82715
G1 X46.414 Y73.140 E367.90678
G1 X45.508 Y73.140 E367.97917
G1 X36.860 Y64.492 E368.95642
G1 X36.860 Y65.398 E369.02881
G1 X44.602 Y73.140 E369.90369
G1 X43.696 Y73.140 E369.97608
G1 X36.860 Y66.304 E370.74859
G1 X36.860 Y67.210 E370.82098
G1 X42.790 Y73.140 E371.49111
G1 X41.884 Y73.140 E371.56350
G1 X36.860 Y68.116 E372.13125
G1 X36.860 Y69.022 E372.20364
G1 X40.978 Y73.140 E372.66903
G1 X40.072 Y73.140 E372.74142
G1 X36.860 Y69.928 E373.10442
G1 X36.860 Y70.834 E373.17681
G1 X39.166 Y73.140 E373.43745
G1 X38.260 Y73.140 E373.50984
G1 X36.860 Y71.740 E373.66809
G1 X36.860 Y72.646 E373.74048
G1 X37.354 Y73.140 E373.79635
G1 Z0.950 F7800.000
G1 X83.529 Y73.529 F7800.000
G1 F3600
G1 X36.471 Y73.529 E377.52698
G1 X36.471 Y46.471 E379.67204
G1 X83.529 Y46.471 E383.40267
G1 X83.529 Y73.454 E385.54179
G1 X84.164 Y74.164 F7800.000
G1 F3600
G1 X35.836 Y74.164 E389.37319
G1 X35.836 Y45.836 E391.61904
G1 X84.164 Y45.836 E395.45044
G1 X84.164 Y74.089 E397.69034
G1 X84.725 Y74.725 F7800.000
G1 F1800
G1 X35.275 Y74.725 E400.68549
G1 X35.275 Y45.275 E402.46925
G1 X84.725 Y45.275 E405.46439
G1 X84.725 Y74.650 E407.24361
G1 X84.233 Y74.636 F7800.000
G1 X82.646 Y73.140 F7800.000
G1 F1200
G1 X83.140 Y72.646 E407.29949
G1 X83.140 Y71.740 E407.37188
G1 X81.740 Y73.140 E407.53014
G1 X80.834 Y73.140 E407.60253
G1 X83.140 Y70.834 E407.86316
G1 X83.140 Y69.928 E407.93555
G1 X79.928 Y73.140 E408.29856
G1 X79.022 Y73.140 E408.37095
G1 X83.140 Y69.022 E408.83633
G1 X83.140 Y68.116 E408.90871
G1 X78.116 Y73.140 E409.47647
G1 X77.210 Y73.140 E409.54886
G1 X83.140 Y67.210 E410.21899
G1 X83.140 Y66.304 E410.29138
G1 X76.304 Y73.140 E411.06388
G1 X75.398 Y73.140 E411.13627
G1 X83.140 Y65.398 E412.01115
G1 X83.140 Y64.492 E412.08354
G1 X74.492 Y73.140 E413.06079
G1 X73.586 Y73.140 E413.13318
G1 X83.140 Y63.586 E414.21281
G1 X83.140 Y62.680 E414.28520
G1 X72.680 Y73.140 E415.46720
G1 X71.774 Y73.140 E415.53959
G1 X83.140 Y61.774 E416.82396
G1 X83.140 Y60.868 E416.89635
G1 X70.868 Y73.140 E418.28310
G1 X69.962 Y73.140 E418.35549
G1 X83.140 Y59.962 E419.84462
G1 X83.140 Y59.056 E419.91701
G1 X69.056 Y73.140 E421.50851
G1 X68.150 Y73.140 E421.58089
G1 X83.140 Y58.150 E423.27477
G1 X83.140 Y57.244 E423.34716
G1 X67.244 Y73.140 E425.14341
G1 X66.338 Y73.140 E425.21580
G1 X83.140 Y56.338 E427.11442
G1 X83.140 Y55.432 E427.18681
G1 X65.432 Y73.140 E429.18780
G1 X64.526 Y73.140 E429.26019
G1 X83.140 Y54.526 E431.36356
G1 X83.140 Y53.620 E431.43595
G1 X63.620 Y73.140 E433.64170
G1 X62.714 Y73.140 E433.71409
G1 X83.140 Y52.714 E436.02221
G1 X83.140 Y51.808 E436.09460
G1 X61.808 Y73.140 E438.50509
G1 X60.902 Y73.140 E438.57748
G1 X83.140 Y50.902 E441.09035
G1 X83.140 Y49.996 E441.16274
G1 X59.996 Y73.140 E443.77799
G1 X59.090 Y73.140 E443.85038
G1 X83.140 Y49.090 E446.56800
G1 X83.140 Y48.184 E446.64038
G1 X58.184 Y73.140 E449.46038
G1 X57.278 Y73.140 E449.53277
G1 X83.140 Y47.278 E452.45513
G1 X83.140 Y46.860 E452.48860
G1 X82.653 Y46.860 E452.52752
G1 X56.372 Y73.140 E455.49721
G1 X55.466 Y73.140 E455.56960
G1 X81.747 Y46.860 E458.53929
G1 X80.841 Y46.860 E458.61168
G1 X54.560 Y73.140 E461.58137
G1 X53.654 Y73.140 E461.65376
G1 X79.935 Y46.860 E464.62345
G1 X79.029 Y46.860 E464.69584
G1 X52.749 Y73.140 E467.66553
G1 X51.843 Y73.140 E467.73791
G1 X78.123 Y46.860 E470.70760
G1 X77.217 Y46.860 E470.77999
G1 X50.937 Y73.140 E473.74968
G1 X50.031 Y73.140 E473.82207
G1 X76.311 Y46.860 E476.79176
G1 X75.405 Y46.860 E476.86415
G1 X49.125 Y73.140 E479.83384
G1 X48.219 Y73.140 E479.90623
G1 X74.499 Y46.860 E482.87592
G1 X73.593 Y46.860 E482.94831
G1 X47.313 Y73.140 E485.91800
G1 X46.407 Y73.140 E485.99038
G1 X72.687 Y46.860 E488.96007
G1 X71.781 Y46.860 E489.03246
G1 X45.501 Y73.140 E492.00215
G1 X44.595 Y73.140 E492.07454
G1 X70.875 Y46.860 E495.04423
G1 X69.969 Y46.860 E495.11662
G1 X43.689 Y73.140 E498.08631
G1 X42.783 Y73.140 E498.15870
G1 X69.063 Y46.860 E501.12839
G1 X68.157 Y46.860 E501.20078
G1 X41.877 Y73.140 E504.17046
G1 X40.971 Y73.140 E504.24285
G1 X67.252 Y46.860 E507.21254
G1 X66.346 Y46.860 E507.28493
G1 X40.065 Y73.140 E510.25462
G1 X39.159 Y73.140 E510.32701
G1 X65.440 Y46.860 E513.29670
G1 X64.534 Y46.860 E513.36909
G1 X38.253 Y73.140 E516.33878
G1 X37.347 Y73.140 E516.41117
G1 X63.628 Y46.860 E519.38085
G1 X62.722 Y46.860 E519.45324
G1 X36.860 Y72.722 E522.37561
G1 X36.860 Y71.816 E522.44800
G1 X61.816 Y46.860 E525.26800
